Origami/22x22/apps/distributor-logo-korora.svg

<svg width="22" height="22" version="1" xmlns="http://www.w3.org/2000/svg">
 <path d="m14 1.5c-3.866 0-7 3.134-7 7s3.134 7 7 7 7-3.134 7-7v-6c0-0.55-0.446-1-1-1z" style="opacity:.2"/>
 <path d="m8 7.5c-3.866 0-7 3.134-7 7v6c0 0.55 0.446 1 1 1h6c3.866 0 7-3.134 7-7s-3.134-7-7-7z" style="opacity:.2"/>
 <path d="m14 1c-3.866 0-7 3.134-7 7s3.134 7 7 7 7-3.134 7-7v-6c0-0.55-0.446-1-1-1z" style="fill:#666666"/>
 <path d="m14 13.5c2.77 0 5-2.23 5-5v-5h-5c-2.77 0-5 2.23-5 5s2.23 5 5 5z" style="opacity:.2"/>
 <path d="m14 13c2.77 0 5-2.23 5-5v-5h-5c-2.77 0-5 2.23-5 5s2.23 5 5 5z" style="fill:#ececec"/>
 <path d="m14 1c-3.866 0-7 3.134-7 7 0 0.0845 0.0107 0.1662 0.0137 0.25 0.1329-3.7491 3.2053-6.75 6.9863-6.75h6c0.554 0 1 0.45 1 1v-0.5c0-0.55-0.446-1-1-1z" style="fill:#ffffff;opacity:.1"/>
 <path d="m8 7c-3.866 0-7 3.134-7 7v6c0 0.55 0.446 1 1 1h6c3.866 0 7-3.134 7-7s-3.134-7-7-7z" style="fill:#808080"/>
 <path d="m8 9.5c-2.77 0-5 2.23-5 5v5h5c2.77 0 5-2.23 5-5s-2.23-5-5-5z" style="opacity:.2"/>
 <path d="m8 9c-2.77 0-5 2.23-5 5v5h5c2.77 0 5-2.23 5-5s-2.23-5-5-5z" style="fill:#ffffff"/>
 <path d="m8 7c-3.866 0-7 3.134-7 7v0.5c0-3.866 3.134-7 7-7 3.781 0 6.853 3.001 6.986 6.75 3e-3 -0.084 0.014-0.165 0.014-0.25 0-3.866-3.134-7-7-7z" style="fill:#ffffff;opacity:.2"/>
</svg>

<svg xmlns="http://www.w3.org/2000/svg" width="22" height="22" version="1">
 <path style="opacity:0.2" d="M 14,1.5 C 10.134,1.5 7,4.634 7,8.5 7,12.366 10.134,15.5 14,15.5 17.866,15.5 21,12.366 21,8.5 V 2.5 C 21,1.95 20.554,1.5 20,1.5 Z"/>
 <path style="opacity:0.2" d="M 8,7.5 C 4.134,7.5 1,10.634 1,14.5 V 20.5 C 1,21.05 1.446,21.5 2,21.5 H 8 C 11.866,21.5 15,18.366 15,14.5 15,10.634 11.866,7.5 8,7.5 Z"/>
 <path style="fill:#666666" d="M 14,1 C 10.134,1 7,4.134 7,8 7,11.866 10.134,15 14,15 17.866,15 21,11.866 21,8 V 2 C 21,1.45 20.554,1 20,1 Z"/>
 <path style="opacity:0.2" d="M 14,13.5 C 16.77,13.5 19,11.27 19,8.5 V 3.5 H 14 C 11.23,3.5 9,5.73 9,8.5 9,11.27 11.23,13.5 14,13.5 Z"/>
 <path style="fill:#ececec" d="M 14,13 C 16.77,13 19,10.77 19,8 V 3 H 14 C 11.23,3 9,5.23 9,8 9,10.77 11.23,13 14,13 Z"/>
 <path style="opacity:0.1;fill:#ffffff" d="M 14,1 C 10.134,1 7,4.134 7,8 7,8.0845 7.0107,8.1662 7.0137,8.25 7.1466,4.5009 10.219,1.5 14,1.5 H 20 C 20.554,1.5 21,1.95 21,2.5 V 2 C 21,1.45 20.554,1 20,1 Z"/>
 <path style="fill:#808080" d="M 8,7 C 4.134,7 1,10.134 1,14 V 20 C 1,20.55 1.446,21 2,21 H 8 C 11.866,21 15,17.866 15,14 15,10.134 11.866,7 8,7 Z"/>
 <path style="opacity:0.2" d="M 8,9.5 C 5.23,9.5 3,11.73 3,14.5 V 19.5 H 8 C 10.77,19.5 13,17.27 13,14.5 13,11.73 10.77,9.5 8,9.5 Z"/>
 <path style="fill:#ffffff" d="M 8,9 C 5.23,9 3,11.23 3,14 V 19 H 8 C 10.77,19 13,16.77 13,14 13,11.23 10.77,9 8,9 Z"/>
 <path style="opacity:0.2;fill:#ffffff" d="M 8,7 C 4.134,7 1,10.134 1,14 V 14.5 C 1,10.634 4.134,7.5 8,7.5 11.781,7.5 14.853,10.501 14.986,14.25 14.989,14.166 15,14.085 15,14 15,10.134 11.866,7 8,7 Z"/>
</svg>
